X:9
T:Miss Baigrie
R:reel
C:Robert Baillie
D:Buddy MacMaster, Cape Breton Tradition
B:Kohler's Violin Repository
Z:Paul Stewart Cranford (P.S.C.), <http://www.cranfordpub.com>
L:1/8
Q:333
M:C|
K:D
A|dcdf a^gab|afef dAAd|BdcB AFDe|fdgf eEEA|
dcdf a^gab|afef dAAd|cedc Bdgd|caBg aAA||
||g|FGAF DGBG|FA,DF GEEG|FGAF DGBG|FABc dDDG|
FGAF DGBG|FAdf gece|afdA Bdgd|ceAc dDD|]
